X: 15753
T: Good Drying
R: reel
M: 4/4
K: Amixolydian
~c2 GA GccG|~d2 Gd eGdG|~c2 GA GccG|~d2 GB ~A2 AG|
~c2 GA GccG|~d2 Gd eGdG-|Gccd eA ~A2|cddG [1 A4:|[ A4-:|
-Accd eeef|g3e BccG-|Gccd eA ~A2|cddG ~A2 AG-|
-Gccd eeef|g3e BccG-|Gccd eA ~A2|cddG A4:|
~c2 GA GccG|~d2 Gd GddG|~c2 GA GccG|~d2 GB ~A2 AG|
~c2 GA GccG|~d2 Gd GddG-|Gccd eA ~A2|cddG [1 A4:|[ A4-:|
-Accd eA ~A2|cddG cddG-|Gccd eA ~A2|cddG ~A2 AG-|
-Gccd eA ~A2|cddG cddG|eA ~A2 AeeA|cddG A4:|

